apps/ui-icons/svgs/unpined.svg

<svg viewBox="0 0 24 24" width="24" height="24"  fill="none" xmlns="http://www.w3.org/2000/svg">
<path d="M16.9999 2.9998V4.9998H15.9999V13.1748L7.8249 4.9998L6.9999 4.1748V2.9998H16.9999ZM11.9999 22.9998L10.9999 21.9998V15.9998H5.9999V13.9998L7.9999 11.9998V10.8498L1.3999 4.1998L2.7999 2.7998L21.1999 21.1998L19.7499 22.5998L13.1499 15.9998H12.9999V21.9998L11.9999 22.9998Z" fill="#171D26"/>
</svg>

<svg xmlns="http://www.w3.org/2000/svg" width="24" height="24" fill="none" viewBox="0 0 24 24">
  <path fill="#171D26" d="M17 3v2h-1v8.175L7.825 5 7 4.175V3h10Zm-5 20-1-1v-6H6v-2l2-2v-1.15L1.4 4.2l1.4-1.4 18.4 18.4-1.45 1.4-6.6-6.6H13v6l-1 1Z"/>
</svg>
